svgs/sova_five.svg

<svg width="192" height="192" viewBox="0 0 192 192" fill="none" xmlns="http://www.w3.org/2000/svg">
<path d="M76.5 118.42C82.7706 118.249 89.8894 117.239 96 114.5C102.111 117.239 109.229 118.249 115.5 118.42C108.3 118.356 99.5 125.78 96 129.5C92.5 125.78 83.7 118.356 76.5 118.42Z" fill="black"/>
<path d="M22 43C23.8333 47.3333 30 56.8 39.5 62.5C52 70 73.5 74.5 96 114.5M96 114.5C89.8894 117.239 82.7706 118.249 76.5 118.42M96 114.5C118.5 74.5 140 70 152.5 62.5C162 56.8 168.167 47.3333 170 43M96 114.5C102.111 117.239 109.229 118.249 115.5 118.42M26 71.5L33.1331 76.404C33.6758 76.7771 34 77.3935 34 78.0521V91.5C33.5 98.5 38.6 113.5 63 117.5C65.9182 118.052 70.8668 118.574 76.5 118.42M76.5 118.42C83.7 118.356 92.5 125.78 96 129.5C99.5 125.78 108.3 118.356 115.5 118.42M166 71.5L158.867 76.404C158.324 76.7771 158 77.3935 158 78.0521V91.5C158.5 98.5 153.4 113.5 129 117.5C126.082 118.052 121.133 118.574 115.5 118.42" stroke="black" stroke-width="12" stroke-linecap="round" stroke-linejoin="round"/>
<path d="M75.5 134.5L85.8921 142.384C87.7248 143.774 87.3751 146.625 85.2607 147.531L79.5 150" stroke="black" stroke-width="12" stroke-linecap="round" stroke-linejoin="round"/>
<path d="M76.8172 89.5C75.1698 94.1608 70.7249 97.5 65.5 97.5C58.8726 97.5 53.5 92.1274 53.5 85.5C53.5 81.268 55.6907 77.5477 59 75.4112" stroke="black" stroke-width="12" stroke-linecap="round"/>
<path d="M116.5 134.5L106.108 142.384C104.275 143.774 104.625 146.625 106.739 147.531L112.5 150" stroke="black" stroke-width="12" stroke-linecap="round" stroke-linejoin="round"/>
<path d="M115.183 89.5C116.83 94.1608 121.275 97.5 126.5 97.5C133.127 97.5 138.5 92.1274 138.5 85.5C138.5 81.268 136.309 77.5477 133 75.4112" stroke="black" stroke-width="12" stroke-linecap="round"/>
</svg>

<svg xmlns="http://www.w3.org/2000/svg" width="192" height="192" fill="none" xmlns:v="https://vecta.io/nano"><path d="M76.5 118.42c6.271-.171 13.389-1.181 19.5-3.92 6.111 2.739 13.229 3.749 19.5 3.92-7.2-.064-16 7.36-19.5 11.08-3.5-3.72-12.3-11.144-19.5-11.08z" fill="#000"/><g stroke="#000" stroke-width="12" stroke-linecap="round"><path d="M22 43c1.833 4.333 8 13.8 17.5 19.5 12.5 7.5 34 12 56.5 52m0 0c-6.111 2.739-13.229 3.749-19.5 3.92M96 114.5c22.5-40 44-44.5 56.5-52C162 56.8 168.167 47.333 170 43m-74 71.5c6.111 2.739 13.229 3.749 19.5 3.92M26 71.5l7.133 4.904A2 2 0 0 1 34 78.052V91.5c-.5 7 4.6 22 29 26 2.918.552 7.867 1.074 13.5.92m0 0c7.2-.064 16 7.36 19.5 11.08 3.5-3.72 12.3-11.144 19.5-11.08M166 71.5l-7.133 4.904a2 2 0 0 0-.867 1.648V91.5c.5 7-4.6 22-29 26-2.918.552-7.867 1.074-13.5.92m-40 16.08l10.392 7.884c1.833 1.39 1.483 4.241-.631 5.147L79.5 150" stroke-linejoin="round"/><path d="M76.817 89.5c-1.647 4.661-6.092 8-11.317 8-6.627 0-12-5.373-12-12A11.99 11.99 0 0 1 59 75.411"/><path d="M116.5 134.5l-10.392 7.884c-1.833 1.39-1.483 4.241.631 5.147L112.5 150" stroke-linejoin="round"/><path d="M115.183 89.5c1.647 4.661 6.092 8 11.317 8 6.627 0 12-5.373 12-12a11.99 11.99 0 0 0-5.5-10.089"/></g></svg>
